X:604
T:The brides favorite
T:O'Brian's
R:Jig
D:Steeleye Span Below the Salt
S:Mike Long
Z:Transcription, arrangement(?), chords:Mike Long
M:6/8
L:1/8
K:G
D|\
"G"G2A B3|GBd gdB|"D"AFD cBA|"G"GBd g2B|\
G2A B3|GBd gdB|"D"AFD cBA|"G"BGG G2:|
|:d|\
"G"g2a "D"f2a|"G"gdB GBd|g2g fed|"C"e2e e2f|\
"G"gfg "D"def|"G"gdB GAB|"D"AFD cBA|"G"BGG G2:|
D|:\
"G"GBd g3|"C"edc "D"BcA|"G"GBd g2g|"D"faf "G"g2a|\
"G"bgg "D"agd|"C"ege "G"d2d|"C"ege "G"dBd|"D"g2f gdB:|
